%
(Header)
(Generated by gcodetools from Inkscape.)
(Using default header. To add your own header create file "header" in the output dir.)
M3
(Header end.)
G21 (All units in mm)

(Pass at depth -1.0)
(Start cutting path id: path834)
(Change tool to Default tool)

G00 Z5.000000
G00 X157.237415 Y76.976025

G01 Z-0.125000 F100.0(Penetrate)
G01 X157.237415 Y72.123086 Z-0.125000 F400.000000
G01 X157.237415 Y67.270146 Z-0.125000
G01 X157.237415 Y62.416566 Z-0.125000
G01 X142.946653 Y62.416566 Z-0.125000
G01 X128.657296 Y62.416566 Z-0.125000
G01 X114.367315 Y62.416566 Z-0.125000
G01 X100.078270 Y62.416566 Z-0.125000
G01 X85.788913 Y62.416566 Z-0.125000
G01 X71.497527 Y62.416566 Z-0.125000
G01 X57.206921 Y62.416566 Z-0.125000
G01 X42.916784 Y62.416566 Z-0.125000
G01 X42.916784 Y68.509481 Z-0.125000
G01 X42.916784 Y74.602395 Z-0.125000
G03 X46.923341 Y77.293085 Z-0.125000 I-3156.492326 J4704.490715
G03 X50.675607 Y79.818489 Z-0.125000 I-2169.030163 J3226.811287
G03 X54.687527 Y82.524401 Z-0.125000 I-2276.086672 J3378.964943
G03 X58.408357 Y85.040347 Z-0.125000 I-2164.200343 J3204.644473
G03 X62.428555 Y87.766837 Z-0.125000 I-1931.858813 J2852.844504
G03 X66.108787 Y90.271171 Z-0.125000 I-1457.044085 J2145.148259
G03 X70.142451 Y93.025835 Z-0.125000 I-1360.315918 J1996.246009
G03 X73.767218 Y95.512244 Z-0.125000 I-1178.465511 J1721.890460
G03 X77.824214 Y98.308807 Z-0.125000 I-992.615393 J1444.336125
G03 X81.368192 Y100.767407 Z-0.125000 I-773.614317 J1118.918991
G03 X85.470167 Y103.634347 Z-0.125000 I-669.015511 J961.585441
G03 X88.882825 Y106.043065 Z-0.125000 I-482.795027 J687.643002
G03 X93.092801 Y109.054222 Z-0.125000 I-382.191361 J538.800197
G03 X96.248664 Y111.354591 Z-0.125000 I-225.227856 J312.303828
G03 X100.893475 Y114.860355 Z-0.125000 I-148.491363 J201.567093
G03 X103.227765 Y116.751301 Z-0.125000 I-40.505962 J52.389090
G03 X105.743171 Y118.958975 Z-0.125000 I-53.097606 J63.035822
G03 X107.670969 Y120.813884 Z-0.125000 I-35.411679 J38.732426
G03 X109.828964 Y123.181914 Z-0.125000 I-28.374074 J28.024716
G03 X111.207203 Y125.022498 Z-0.125000 I-15.694922 J13.188745
G03 X112.544952 Y127.625473 Z-0.125000 I-10.884286 J7.239014
G03 X112.872351 Y129.411728 Z-0.125000 I-4.709122 J1.786255
G03 X112.070476 Y132.427620 Z-0.125000 I-6.072400 J0.000000
G03 X109.914586 Y134.581066 Z-0.125000 I-5.026368 J-2.876180
G03 X106.924928 Y135.754755 Z-0.125000 I-4.765858 J-7.745226
G03 X101.170101 Y136.322219 Z-0.125000 I-5.754827 J-28.896982
G03 X95.433027 Y135.715067 Z-0.125000 I0.000000 J-27.408823
G03 X92.297120 Y134.422867 Z-0.125000 I1.982839 J-9.263152
G03 X90.919569 Y133.023029 Z-0.125000 I2.720959 J-4.055366
G03 X89.901899 Y130.725999 Z-0.125000 I6.705854 J-4.344893
G03 X89.591394 Y129.073681 Z-0.125000 I11.082337 J-2.937934
G03 X89.468008 Y126.879899 Z-0.125000 I19.440816 J-2.193782
G01 X89.468008 Y122.817956 Z-0.125000
G01 X89.468008 Y118.756012 Z-0.125000
G01 X73.950985 Y118.756012 Z-0.125000
G01 X58.433962 Y118.756012 Z-0.125000
G01 X42.916784 Y118.756012 Z-0.125000
G01 X42.916784 Y121.868119 Z-0.125000
G02 X43.010319 Y124.981360 Z-0.125000 I51.857372 J-0.000000
G02 X43.257151 Y127.528708 Z-0.125000 I34.978875 J-2.103740
G02 X43.893628 Y130.777204 Z-0.125000 I27.207797 J-3.644213
G02 X44.717142 Y133.157273 Z-0.125000 I15.386865 J-3.991416
G02 X45.891387 Y135.154084 Z-0.125000 I8.616134 J-3.723137
G02 X48.017460 Y137.450558 Z-0.125000 I13.566293 J-10.427261
G02 X50.303112 Y139.263045 Z-0.125000 I15.775822 J-17.546821
G02 X53.590123 Y141.333615 Z-0.125000 I23.909234 J-34.311369
G02 X57.239952 Y143.150080 Z-0.125000 I18.659970 J-32.918486
G02 X61.786585 Y144.875550 Z-0.125000 I21.354528 J-49.416490
G02 X66.403982 Y146.204123 Z-0.125000 I20.080345 J-61.100281
G02 X71.979194 Y147.400077 Z-0.125000 I21.769522 J-87.890509
G02 X78.015135 Y148.312321 Z-0.125000 I18.301410 J-100.668162
G02 X85.276332 Y149.005640 Z-0.125000 I17.510517 J-145.018952
G02 X91.704558 Y149.336529 Z-0.125000 I12.018281 J-170.874598
G02 X99.112594 Y149.457437 Z-0.125000 I7.408036 J-226.884406
G02 X105.767235 Y149.380408 Z-0.125000 I0.000000 J-287.489991
G02 X111.725405 Y149.165441 Z-0.125000 I-5.343291 J-230.775947
G02 X118.340647 Y148.733386 Z-0.125000 I-10.006659 J-204.072477
G02 X124.108078 Y148.154695 Z-0.125000 I-12.704355 J-155.645264
G02 X130.449122 Y147.245740 Z-0.125000 I-15.907098 J-133.543717
G02 X135.783629 Y146.196290 Z-0.125000 I-16.031030 J-95.570760
G02 X141.394908 Y144.714739 Z-0.125000 I-17.857111 J-78.999651
G02 X145.921123 Y143.127223 Z-0.125000 I-16.032947 J-52.958195
G02 X151.153369 Y140.753965 Z-0.125000 I-20.735095 J-52.668303
G02 X154.854528 Y138.514913 Z-0.125000 I-14.720685 J-28.511872
G02 X158.171036 Y135.704304 Z-0.125000 I-13.655382 J-19.475337
G02 X160.219536 Y133.052233 Z-0.125000 I-10.106533 J-9.923622
G02 X161.454253 Y130.184826 Z-0.125000 I-10.155970 J-6.072742
G02 X161.866728 Y127.196297 Z-0.125000 I-10.620230 J-2.988529
G02 X161.596571 Y124.640771 Z-0.125000 I-12.221937 J0.000000
G02 X160.726965 Y121.868760 Z-0.125000 I-15.240894 J3.258804
G02 X159.480979 Y119.422920 Z-0.125000 I-17.207316 J7.225641
G02 X157.582466 Y116.676364 Z-0.125000 I-23.791185 J14.415840
G02 X155.551832 Y114.320310 Z-0.125000 I-26.559337 J20.837829
G02 X152.865250 Y111.687002 Z-0.125000 I-35.996505 J34.037623
G02 X150.593273 Y109.744996 Z-0.125000 I-27.205279 J29.527788
G02 X146.318167 Y106.500370 Z-0.125000 I-80.068176 J101.058776
G02 X143.221398 Y104.296253 Z-0.125000 I-113.717529 J156.494768
G02 X139.093783 Y101.464893 Z-0.125000 I-190.708738 J273.594794
G02 X135.686136 Y99.189188 Z-0.125000 I-235.518279 J348.976629
G02 X131.580711 Y96.500509 Z-0.125000 I-328.519344 J497.147352
G02 X128.003383 Y94.194280 Z-0.125000 I-377.615676 J581.814387
G02 X123.898549 Y91.580959 Z-0.125000 I-499.208794 J779.594257
G02 X120.211651 Y89.258068 Z-0.125000 I-551.969261 J871.999442
G02 X116.100380 Y86.690872 Z-0.125000 I-672.268699 J1072.038000
G02 X112.336431 Y84.359152 Z-0.125000 I-761.462003 J1224.976626
G02 X108.217431 Y81.824482 Z-0.125000 I-874.263682 J1416.119672
G02 X104.396289 Y79.487003 Z-0.125000 I-950.962274 J1550.272581
G02 X100.270000 Y76.976025 Z-0.125000 I-1149.833752 J1884.875888
G01 X114.512049 Y76.976025 Z-0.125000
G01 X128.752692 Y76.976025 Z-0.125000
G01 X142.994741 Y76.976025 Z-0.125000
G01 X157.237415 Y76.976025 Z-0.125000
G00 Z5.000000

(End cutting path id: path834)


(Pass at depth -2.0)

(Footer)
M5
G00 X0.0000 Y0.0000
M2
(Using default footer. To add your own footer create file "footer" in the output dir.)
(end)
%