%
(Header)
(Generated by gcodetools from Inkscape.)
(Using default header. To add your own header create file "header" in the output dir.)
M3
(Header end.)
G21 (All units in mm)

(Pass at depth -1.0)
(Start cutting path id: path4816)
(Change tool to Default tool)

G00 Z5.000000
G00 X64.586700 Y87.939000

G01 Z-0.125000 F100.0(Penetrate)
G02 X64.631568 Y92.989478 Z-0.125000 I4.371220 J2.486605 F400.000000
G03 X66.514500 Y98.845000 Z-0.125000 I-11.918373 J7.063038
G03 X68.146621 Y105.820203 Z-0.125000 I-60.461891 J17.825966
G02 X69.435300 Y112.837400 Z-0.125000 I407.584908 J-71.224372
G02 X66.496600 Y115.929331 Z-0.125000 I1.508293 J4.376042
G03 X65.119700 Y119.907200 Z-0.125000 I-38.815033 J-11.208204
G02 X65.963019 Y125.616966 Z-0.125000 I1662.556514 J-242.638418
G02 X67.195900 Y131.237900 Z-0.125000 I42.150715 J-6.299555
G02 X66.856895 Y136.825163 Z-0.125000 I21.159292 J4.087746
G03 X67.082600 Y142.352100 Z-0.125000 I-95.737174 J6.677714
G02 X70.465959 Y144.553312 Z-0.125000 I2.683761 J-0.424267
G03 X75.688900 Y145.616900 Z-0.125000 I1.541624 J5.785465
G03 X81.654188 Y146.864580 Z-0.125000 I-15.456376 J88.782755
G03 X87.564300 Y148.355400 Z-0.125000 I-102.173031 J417.508354
G02 X93.470612 Y149.850602 Z-0.125000 I122.202974 J-470.310429
G02 X99.433600 Y151.113700 Z-0.125000 I22.148815 J-89.855854
G03 X104.823821 Y152.622890 Z-0.125000 I-23.548440 J94.486061
G02 X110.184000 Y154.256000 Z-0.125000 I138.726979 J-445.715171
G02 X115.574339 Y155.726679 Z-0.125000 I34.134816 J-114.497395
G02 X121.089000 Y156.759200 Z-0.125000 I11.666929 J-47.069607
G03 X126.059002 Y157.950338 Z-0.125000 I-20.784470 J97.687009
G02 X130.311000 Y154.654700 Z-0.125000 I0.871710 J-3.266090
G03 X131.296210 Y149.766797 Z-0.125000 I15.265840 J0.533755
G02 X131.906000 Y144.752700 Z-0.125000 I-9.859580 J-3.743202
G02 X131.562092 Y141.471399 Z-0.125000 I-3.954172 J-1.244243
G03 X132.915000 Y139.221700 Z-0.125000 I1.314029 J-0.741429
G02 X132.933454 Y133.669513 Z-0.125000 I-135.600835 J-3.226825
G02 X131.320000 Y128.374700 Z-0.125000 I-10.060724 J0.172504
G03 X128.419601 Y124.285603 Z-0.125000 I1.391795 J-4.060377
G02 X127.897000 Y119.172400 Z-0.125000 I-23.722385 J-0.158733
G03 X127.510954 Y112.445951 Z-0.125000 I72.201149 J-7.518090
G02 X127.007000 Y105.737100 Z-0.125000 I-52.534867 J0.572949
G02 X122.524772 Y103.313932 Z-0.125000 I-7.714479 J8.912713
G03 X117.578000 Y101.697600 Z-0.125000 I18.758358 J-65.787753
G02 X113.027911 Y100.585893 Z-0.125000 I-5.193047 J11.387196
G02 X110.543000 Y104.363600 Z-0.125000 I-0.134650 J2.617549
G03 X111.952785 Y109.379952 Z-0.125000 I-189.747486 J56.032509
G03 X113.223000 Y114.426700 Z-0.125000 I-176.635590 J47.140603
G03 X114.347068 Y119.507820 Z-0.125000 I-169.962924 J40.264840
G03 X115.315000 Y124.626800 Z-0.125000 I-160.073207 J32.918756
G03 X114.133481 Y127.454060 Z-0.125000 I-2.159473 J0.758060
G02 X111.771000 Y131.493200 Z-0.125000 I1.770454 J3.746007
G02 X111.466509 Y134.894362 Z-0.125000 I4.166038 J2.087178
G03 X111.989000 Y138.265100 Z-0.125000 I-12.424018 J3.651685
G03 X109.938309 Y139.725621 Z-0.125000 I-1.238804 J0.430547
G03 X110.636000 Y136.510600 Z-0.125000 I1.132999 J-1.437341
G02 X110.914332 Y130.367741 Z-0.125000 I-12.574722 J-3.647495
G02 X109.120000 Y124.496700 Z-0.125000 I-28.792226 J5.589886
G03 X106.653756 Y122.351648 Z-0.125000 I29.297552 J-36.174747
G03 X105.699000 Y119.244600 Z-0.125000 I2.225272 J-2.384014
G03 X105.157514 Y114.350865 Z-0.125000 I27.309222 J-5.498558
G03 X105.226000 Y109.446100 Z-0.125000 I68.746589 J-1.492943
G03 X105.514384 Y104.524306 Z-0.125000 I279.222993 J13.891267
G02 X105.627000 Y99.620000 Z-0.125000 I-55.154003 J-3.719924
G02 X99.067921 Y96.098683 Z-0.125000 I-12.930572 J16.216107
G03 X91.999500 Y93.772000 Z-0.125000 I199.036496 J-616.569414
G02 X87.631852 Y93.654260 Z-0.125000 I-2.318283 J4.928978
G02 X86.215000 Y97.824000 Z-0.125000 I1.095538 J2.697846
G01 X88.894700 Y109.715200 Z-0.125000
G03 X90.072055 Y115.699872 Z-0.125000 I-162.958743 J35.166766
G03 X90.917000 Y121.728100 Z-0.125000 I-81.678081 J14.521713
G02 X87.802294 Y125.294260 Z-0.125000 I2.736756 J5.533580
G02 X86.549700 Y129.934700 Z-0.125000 I37.547335 J12.624432
G01 X85.718600 Y134.106700 Z-0.125000
G02 X85.356686 Y129.320346 Z-0.125000 I-3.561748 J-2.137543
G03 X86.455100 Y126.095100 Z-0.125000 I1.540330 J-1.275079
G02 X87.058030 Y123.829730 Z-0.125000 I-1.398221 J-1.585057
G03 X86.943600 Y121.057700 Z-0.125000 I4.648363 J-1.580262
G02 X86.007840 Y116.791491 Z-0.125000 I-20.100668 J2.173194
G02 X83.047300 Y113.501600 Z-0.125000 I-5.279441 J1.773890
G03 X82.382172 Y111.789226 Z-0.125000 I1.343307 J-1.507136
G02 X82.169000 Y109.816200 Z-0.125000 I-4.747293 J-0.485116
G03 X81.750931 Y105.528306 Z-0.125000 I76.482235 J-9.621335
G03 X81.496600 Y101.220500 Z-0.125000 I209.525948 J-14.531728
G03 X81.292432 Y96.897125 Z-0.125000 I1444.731535 J-70.392719
G02 X81.026200 Y92.608000 Z-0.125000 I-131.697775 J6.021850
G02 X75.546252 Y89.841668 Z-0.125000 I-10.374217 J13.739841
G03 X69.648700 Y87.974000 Z-0.125000 I47.687147 J-160.827337
G02 X67.124379 Y87.589625 Z-0.125000 I-5.619247 J28.422288
G02 X64.586700 Y87.939000 Z-0.125000 I-0.566699 J5.274671
G01 X64.586700 Y87.939000 Z-0.125000
G00 Z5.000000

(Change tool to Default tool)

G00 Z5.000000
G00 X69.350000 Y131.695000

G01 Z-0.125000 F100.0(Penetrate)
G03 X72.738964 Y132.482626 Z-0.125000 I0.158691 J7.001945 F400.000000
G02 X75.957800 Y133.205400 Z-0.125000 I2.976212 J-5.725564
G02 X78.468656 Y134.469920 Z-0.125000 I3.476691 J-3.778325
G03 X80.297700 Y137.067900 Z-0.125000 I-0.430098 J2.245637
G02 X84.156254 Y137.217334 Z-0.125000 I2.013575 J-2.101938
G03 X86.556400 Y135.791200 Z-0.125000 I5.906066 J7.206993
G03 X88.170956 Y140.041784 Z-0.125000 I-8.446096 J5.640124
G02 X92.409400 Y143.202300 Z-0.125000 I3.676199 J-0.507743
G03 X94.958752 Y144.077140 Z-0.125000 I-0.250425 J4.881682
G02 X98.261700 Y144.320500 Z-0.125000 I1.856162 J-2.656408
G02 X101.339864 Y145.894592 Z-0.125000 I2.206981 J-0.519043
G03 X103.154000 Y147.410500 Z-0.125000 I0.512165 J1.230547
G02 X104.630063 Y150.256044 Z-0.125000 I2.427806 J0.546239
G02 X107.705000 Y149.960200 Z-0.125000 I1.259051 J-3.041728
G02 X109.636659 Y145.509234 Z-0.125000 I-2.579212 J-3.763983
G03 X109.675000 Y140.677000 Z-0.125000 I15.080042 J-2.296616
G03 X113.224574 Y143.053595 Z-0.125000 I-0.408521 J4.449185
G02 X117.276000 Y144.962900 Z-0.125000 I3.286664 J-1.721007
G02 X120.884690 Y146.239333 Z-0.125000 I4.170114 J-6.050206
G03 X124.586000 Y147.493400 Z-0.125000 I-0.602965 J7.868758
G03 X126.346956 Y149.042622 Z-0.125000 I0.320237 J1.411421
G02 X128.529000 Y151.014100 Z-0.125000 I1.824012 J0.174462
G03 X129.822469 Y152.019228 Z-0.125000 I0.043810 J1.278449
G03 X129.796000 Y154.610488 Z-0.125000 I-5.660057 J1.237950
G03 X128.616753 Y157.166545 Z-0.125000 I-7.009622 J-1.683863
G03 X127.121000 Y157.608300 Z-0.125000 I-1.035512 J-0.753037
G02 X122.094207 Y156.277519 Z-0.125000 I-17.052412 J54.253206
G02 X117.010000 Y155.192900 Z-0.125000 I-190.441033 J880.243450
G03 X111.953730 Y154.030381 Z-0.125000 I28.612428 J-136.024326
G03 X106.986000 Y152.461100 Z-0.125000 I10.295403 J-41.238798
G02 X101.151130 Y150.795987 Z-0.125000 I-24.119785 J73.464472
G02 X95.246200 Y149.418200 Z-0.125000 I-75.390737 J309.767632
G03 X89.336400 Y148.064952 Z-0.125000 I122.376967 J-548.016058
G03 X83.482100 Y146.472300 Z-0.125000 I19.739121 J-84.113457
G02 X78.058692 Y145.307427 Z-0.125000 I-14.082229 J52.356367
G03 X72.698100 Y143.864800 Z-0.125000 I4.332553 J-26.780043
G03 X69.263774 Y142.966529 Z-0.125000 I0.745553 J-9.864743
G03 X67.738000 Y139.456500 Z-0.125000 I1.219924 J-2.616922
G02 X67.072546 Y134.342860 Z-0.125000 I-6.348272 J-1.773998
G03 X69.350000 Y131.695000 Z-0.125000 I1.590956 J-0.934963
G01 X69.350000 Y131.695000 Z-0.125000
G00 Z5.000000

(Change tool to Default tool)

G00 Z5.000000
G00 X67.315300 Y146.206000

G01 Z-0.125000 F100.0(Penetrate)
G02 X67.346373 Y152.486966 Z-0.125000 I61.089852 J2.838336 F400.000000
G03 X66.809300 Y158.782100 Z-0.125000 I-22.374916 J1.261548
G02 X71.372721 Y160.740281 Z-0.125000 I6.247712 J-8.263433
G03 X76.419900 Y162.016600 Z-0.125000 I-5.021800 J30.476265
G02 X80.703032 Y163.055617 Z-0.125000 I12.004576 J-40.138698
G03 X85.034400 Y163.872100 Z-0.125000 I-424.991905 J2266.440729
G03 X89.328331 Y164.810792 Z-0.125000 I-14.642359 J77.270056
G03 X93.514900 Y166.218800 Z-0.125000 I-6.551102 J26.407207
G02 X99.131417 Y167.190863 Z-0.125000 I16.014291 J-75.817531
G03 X104.754000 Y168.587600 Z-0.125000 I-3.576311 J26.411753
G02 X110.208819 Y169.884831 Z-0.125000 I14.717028 J-49.767392
G02 X115.735000 Y170.766400 Z-0.125000 I23.514159 J-129.638799
G02 X121.293584 Y171.505436 Z-0.125000 I80.417968 J-583.582158
G03 X126.825000 Y172.372700 Z-0.125000 I-12.660122 J98.819646
G02 X128.548162 Y167.175136 Z-0.125000 I-31.595324 J-13.359305
G02 X129.841000 Y161.559300 Z-0.125000 I-200.478110 J-49.109382
G02 X122.845920 Y159.444264 Z-0.125000 I-12.267571 J27.947690
G02 X115.588000 Y158.303200 Z-0.125000 I-35.900289 J204.696492
G03 X111.775834 Y157.911310 Z-0.125000 I1.726792 J-35.535268
G03 X108.018000 Y157.236700 Z-0.125000 I13.951180 J-88.516945
G03 X104.270792 Y156.462119 Z-0.125000 I77.092909 J-382.405302
G02 X100.509000 Y155.774500 Z-0.125000 I-14.179377 J66.938126
G02 X94.732828 Y154.039649 Z-0.125000 I-223.992618 J735.298401
G02 X88.945900 Y152.334000 Z-0.125000 I-698.850729 J2360.391441
G03 X83.156924 Y150.634692 Z-0.125000 I6620.478054 J-22564.470905
G03 X77.375500 Y148.919100 Z-0.125000 I301.801357 J-1027.648695
G03 X72.530374 Y146.872615 Z-0.125000 I7.225257 J-23.864803
G02 X67.315300 Y146.206000 Z-0.125000 I-3.446464 J6.229798
G01 X67.315300 Y146.206000 Z-0.125000
G00 Z5.000000

(Change tool to Default tool)

G00 Z5.000000
G00 X73.382100 Y148.146700

G01 Z-0.125000 F100.0(Penetrate)
G02 X79.745798 Y150.366825 Z-0.125000 I39.613374 J-103.316128 F400.000000
G02 X86.199800 Y152.319500 Z-0.125000 I88.765556 J-281.746633
G02 X92.680679 Y154.186384 Z-0.125000 I496.994287 J-1713.130260
G03 X99.126400 Y156.150000 Z-0.125000 I-54.086292 J189.103569
G02 X105.210140 Y157.425673 Z-0.125000 I54.545314 J-244.984372
G03 X111.311000 Y158.630500 Z-0.125000 I-897.964840 J4563.055711
G02 X115.782978 Y159.114515 Z-0.125000 I299.259554 J-2744.059514
G03 X120.278000 Y159.727000 Z-0.125000 I-8.522860 J79.349887
G03 X124.702746 Y160.658630 Z-0.125000 I-8.462147 J51.164078
G03 X128.974000 Y162.098700 Z-0.125000 I-7.569467 J29.505395
G02 X127.842179 Y167.665902 Z-0.125000 I10.166465 J4.965509
G03 X125.713000 Y171.482200 Z-0.125000 I-4.093937 J0.218023
G02 X120.261336 Y170.608102 Z-0.125000 I-16.485448 J85.380353
G03 X114.786000 Y169.870600 Z-0.125000 I52.636590 J-411.476243
G03 X109.354184 Y168.957765 Z-0.125000 I14.843398 J-104.942852
G03 X104.000000 Y167.553000 Z-0.125000 I8.265543 J-42.409642
G02 X98.616484 Y166.338710 Z-0.125000 I-7.235578 J19.537743
G03 X93.246300 Y165.274100 Z-0.125000 I2.284963 J-25.602615
G02 X88.302988 Y163.865675 Z-0.125000 I-16.029289 J46.880587
G02 X83.279800 Y162.780700 Z-0.125000 I-44.433132 J193.544681
G03 X78.251405 Y161.727908 Z-0.125000 I77.517968 J-382.779873
G03 X73.281100 Y160.414200 Z-0.125000 I11.961310 J-55.313836
G02 X69.605232 Y159.276052 Z-0.125000 I-27.983015 J83.871493
G03 X67.995600 Y155.657300 Z-0.125000 I0.710026 J-2.483183
G02 X68.054865 Y151.103125 Z-0.125000 I-36.324924 J-2.750182
G03 X67.879700 Y146.553400 Z-0.125000 I205.586874 J-10.193360
G03 X70.704124 Y147.103313 Z-0.125000 I-0.573026 J10.471386
G03 X73.382100 Y148.146700 Z-0.125000 I-11.192857 J32.686167
G01 X73.382100 Y148.146700 Z-0.125000
G00 Z5.000000

(End cutting path id: path4816)


(Pass at depth -2.0)

(Footer)
M5
G00 X0.0000 Y0.0000
M2
(Using default footer. To add your own footer create file "footer" in the output dir.)
(end)
%