%
(Header)
(Generated by gcodetools from Inkscape.)
(Using default header. To add your own header create file "header" in the output dir.)
M3
(Header end.)
G21 (All units in mm)

(Pass at depth -1.0)
(Start cutting path id: path4072)
(Change tool to Default tool)

G00 Z5.000000
G00 X28.726200 Y34.446000

G01 Z-0.125000 F100.0(Penetrate)
G02 X32.608581 Y36.803912 Z-0.125000 I283.852037 J-462.996604 F400.000000
G02 X36.608800 Y39.210000 Z-0.125000 I11906.068677 J-19789.800241
G03 X40.525125 Y41.573926 Z-0.125000 I-703.692936 J1170.236868
G03 X44.476400 Y43.998000 Z-0.125000 I-216.901325 J357.984560
G03 X48.367733 Y46.454066 Z-0.125000 I-166.501184 J268.111183
G03 X52.219700 Y48.985000 Z-0.125000 I-113.051480 J176.256003
G03 X56.020696 Y51.614410 Z-0.125000 I-99.658333 J148.125096
G03 X59.713600 Y54.336000 Z-0.125000 I-78.238555 J110.027510
G03 X63.342544 Y57.218008 Z-0.125000 I-72.796813 J95.389463
G03 X66.799800 Y60.215000 Z-0.125000 I-61.438215 J74.366197
G03 X70.141785 Y63.420118 Z-0.125000 I-58.773179 J64.627870
G03 X73.257800 Y66.774000 Z-0.125000 I-52.269418 J51.686759
G03 X76.165755 Y70.343379 Z-0.125000 I-51.065137 J44.571750
G03 X78.807800 Y74.115000 Z-0.125000 I-47.506222 J36.089608
G03 X81.118422 Y78.035837 Z-0.125000 I-47.792678 J30.806371
G03 X83.138900 Y82.231000 Z-0.125000 I-47.000388 J25.220505
G03 X84.730035 Y86.423393 Z-0.125000 I-48.448725 J20.785839
G03 X86.016600 Y90.967000 Z-0.125000 I-50.654229 J16.797174
G01 X86.061200 Y95.552125 Z-0.125000
G01 X83.016400 Y93.244000 Z-0.125000
G03 X80.855707 Y90.411242 Z-0.125000 I29.601037 J-24.818683
G03 X78.019100 Y86.076000 Z-0.125000 I81.676891 J-56.537914
G03 X75.746952 Y82.234215 Z-0.125000 I98.728045 J-60.983554
G03 X73.716400 Y78.467000 Z-0.125000 I90.863151 J-51.406646
G03 X71.204806 Y73.076428 Z-0.125000 I70.097231 J-35.940341
G03 X70.401600 Y70.398000 Z-0.125000 I12.076661 J-5.081190
G03 X68.880695 Y67.168663 Z-0.125000 I2005.184444 J-946.344431
G03 X66.346400 Y61.487000 Z-0.125000 I142.311649 J-66.883892
G03 X64.480471 Y56.793241 Z-0.125000 I108.652691 J-45.910911
G03 X63.015200 Y52.287000 Z-0.125000 I52.143949 J-19.446724
G03 X61.981337 Y45.724203 Z-0.125000 I27.752559 J-7.734801
G03 X63.182600 Y42.890000 Z-0.125000 I3.598416 J-0.146505
G03 X65.361607 Y42.243801 Z-0.125000 I1.775743 J1.990925
G03 X72.318600 Y44.614000 Z-0.125000 I-3.161581 J20.675010
G03 X74.430876 Y47.003535 Z-0.125000 I-105.097524 J95.031365
G02 X77.589500 Y50.653000 Z-0.125000 I2302.560953 J-1989.682454
G02 X80.101152 Y53.532643 Z-0.125000 I453.078909 J-392.644567
G02 X82.893900 Y56.665000 Z-0.125000 I204.533339 J-179.546752
G02 X85.679419 Y59.679261 Z-0.125000 I154.560615 J-140.037313
G02 X88.409200 Y62.482000 Z-0.125000 I86.839148 J-81.847927
G02 X91.678483 Y65.570217 Z-0.125000 I62.222241 J-62.595813
G02 X94.400300 Y67.797000 Z-0.125000 I25.680086 J-28.612161
G02 X99.192766 Y70.217154 Z-0.125000 I9.337584 J-12.535409
G02 X101.542000 Y69.542000 Z-0.125000 I0.653576 J-2.150569
G03 X96.345135 Y67.432425 Z-0.125000 I1.876539 J-12.078725
G03 X93.514700 Y64.343000 Z-0.125000 I5.760739 J-8.119100
G03 X91.910777 Y59.483052 Z-0.125000 I10.548774 J-6.176044
G03 X92.177600 Y54.754000 Z-0.125000 I14.400631 J-1.559540
G03 X94.770281 Y49.905056 Z-0.125000 I10.045466 J2.253597
G03 X98.694300 Y48.730000 Z-0.125000 I2.991722 J2.851126
G03 X101.273269 Y50.092298 Z-0.125000 I-1.286065 J5.556926
G03 X105.579000 Y55.501000 Z-0.125000 I-15.277214 J16.579997
G02 X105.616513 Y60.399930 Z-0.125000 I19.041716 J2.303799
G02 X106.553000 Y63.506000 Z-0.125000 I10.271276 J-1.402601
G02 X109.066112 Y66.684416 Z-0.125000 I8.394986 J-4.055011
G02 X112.575000 Y68.740000 Z-0.125000 I8.429300 J-10.366205
G02 X116.317303 Y69.812520 Z-0.125000 I7.309274 J-18.438779
G02 X120.556000 Y70.366000 Z-0.125000 I7.543525 J-41.263018
G02 X124.866918 Y70.557199 Z-0.125000 I4.952713 J-62.973413
G02 X128.727000 Y70.586000 Z-0.125000 I7.265070 J-715.018708
G03 X134.636677 Y70.814062 Z-0.125000 I-0.415797 J87.455963
G03 X136.713000 Y71.691000 Z-0.125000 I-0.253586 J3.496934
G03 X132.824350 Y67.644910 Z-0.125000 I9.892339 J-13.399125
G03 X131.649000 Y64.727000 Z-0.125000 I6.146292 J-4.171434
G03 X132.458734 Y60.328508 Z-0.125000 I6.410254 J-1.093693
G03 X135.445000 Y57.380000 Z-0.125000 I7.065016 J4.168981
G03 X139.569183 Y56.256231 Z-0.125000 I4.222281 J7.365919
G03 X143.737000 Y57.698000 Z-0.125000 I0.075419 J6.526960
G03 X145.672398 Y60.180804 Z-0.125000 I-4.318156 J5.361837
G03 X147.031000 Y65.607000 Z-0.125000 I-13.729095 J6.320648
G02 X149.752034 Y68.812603 Z-0.125000 I4.721468 J-1.250097
G02 X152.266000 Y68.674000 Z-0.125000 I1.122908 J-2.501128
G02 X154.851728 Y66.790866 Z-0.125000 I-8.412878 J-14.268502
G03 X158.200000 Y63.965000 Z-0.125000 I57.783570 J65.069225
G03 X161.592728 Y61.608950 Z-0.125000 I18.736000 J23.359169
G03 X164.839000 Y60.509000 Z-0.125000 I4.187511 J7.018241
G03 X167.633886 Y60.963150 Z-0.125000 I0.598083 J5.146411
G03 X171.219000 Y63.873000 Z-0.125000 I-4.053006 J8.657019
G03 X175.932228 Y65.000228 Z-0.125000 I0.205458 J9.558146
G03 X179.806000 Y67.927000 Z-0.125000 I-7.365395 J13.775556
G03 X183.397093 Y73.323657 Z-0.125000 I-12.991364 J12.537968
G03 X183.595000 Y76.570000 Z-0.125000 I-4.406930 J1.897864
G03 X182.060258 Y77.671542 Z-0.125000 I-1.472129 J-0.431145
G03 X175.056000 Y75.507000 Z-0.125000 I0.584426 J-14.305987
G03 X172.331133 Y71.306914 Z-0.125000 I18.447886 J-14.952277
G03 X171.110000 Y67.935000 Z-0.125000 I13.090547 J-6.647792
G03 X170.952728 Y63.340288 Z-0.125000 I11.845653 J-2.705512
G03 X172.250000 Y59.600000 Z-0.125000 I11.059370 J1.740689
G03 X174.815410 Y56.381107 Z-0.125000 I11.159585 J6.262279
G03 X178.489000 Y53.842000 Z-0.125000 I11.429262 J12.608866
G03 X182.393085 Y52.360410 Z-0.125000 I8.623065 J16.837776
G03 X186.768000 Y51.731000 Z-0.125000 I5.057199 J19.632353
G03 X190.970402 Y52.041697 Z-0.125000 I0.656682 J19.693489
G03 X195.151000 Y53.347000 Z-0.125000 I-3.245682 J17.742627
G03 X198.609871 Y55.423136 Z-0.125000 I-7.144379 J15.821969
G03 X201.839000 Y58.637000 Z-0.125000 I-11.072827 J14.354583
G00 Z5.000000

(End cutting path id: path4072)

(Start cutting path id: path4068)
(Change tool to Default tool)

G00 Z5.000000
G00 X19.654800 Y115.333300

G01 Z-0.125000 F100.0(Penetrate)
G02 X22.711770 Y118.900230 Z-0.125000 I217.333788 J-183.168372 F400.000000
G02 X25.819600 Y122.413900 Z-0.125000 I240.324100 J-209.434665
G02 X28.980264 Y125.885643 Z-0.125000 I252.395428 J-226.605409
G02 X32.184200 Y129.314500 Z-0.125000 I284.962786 J-263.058913
G02 X35.428420 Y132.706355 Z-0.125000 I304.475189 J-287.975082
G02 X38.707700 Y136.064800 Z-0.125000 I357.564071 J-345.855369
G02 X42.016482 Y139.393308 Z-0.125000 I392.331583 J-386.697672
G02 X45.351600 Y142.697600 Z-0.125000 I494.129976 J-495.404447
G02 X48.706466 Y145.979873 Z-0.125000 I564.800932 J-573.936775
G02 X52.078500 Y149.246600 Z-0.125000 I814.365544 J-837.243913
G02 X55.461197 Y152.500102 Z-0.125000 I1040.382139 J-1078.309974
G02 X58.851700 Y155.746400 Z-0.125000 I2344.871840 J-2445.640556
G02 X62.245399 Y158.989856 Z-0.125000 I6774.041188 J-7084.494765
G03 X65.637300 Y162.234300 Z-0.125000 I-2470.633282 J2586.325645
G03 X69.023832 Y165.485132 Z-0.125000 I-1485.516569 J1550.915811
G03 X72.399100 Y168.745200 Z-0.125000 I-817.812875 J850.089129
G03 X75.761490 Y172.021918 Z-0.125000 I-670.635862 J691.533604
G03 X79.103100 Y175.316200 Z-0.125000 I-492.289391 J502.703916
G03 X74.290593 Y177.870532 Z-0.125000 I-7.105263 J-7.576033
G03 X69.989400 Y177.718900 Z-0.125000 I-1.863068 J-8.231824
G03 X66.144207 Y175.840405 Z-0.125000 I3.847413 J-12.750195
G03 X61.857200 Y172.207500 Z-0.125000 I18.634525 J-26.335546
G03 X58.702559 Y168.685835 Z-0.125000 I33.533653 J-33.212583
G03 X55.559200 Y164.552400 Z-0.125000 I66.837896 J-54.090236
G03 X52.676251 Y160.312788 Z-0.125000 I91.480608 J-65.307092
G03 X50.117200 Y156.256800 Z-0.125000 I174.808780 J-113.127694
G03 X47.049362 Y151.176616 Z-0.125000 I311.814690 J-191.766082
G02 X44.967300 Y147.776300 Z-0.125000 I-120.250048 J71.293216
G03 X41.848805 Y144.417298 Z-0.125000 I5.555009 J-8.284372
G03 X39.880500 Y139.471800 Z-0.125000 I16.863081 J-9.575935
G03 X39.162164 Y134.380512 Z-0.125000 I24.771086 J-6.091301
G03 X39.397500 Y129.579200 Z-0.125000 I27.269074 J-1.069833
G03 X41.482387 Y123.245043 Z-0.125000 I18.369518 J2.536125
G03 X44.179100 Y121.612200 Z-0.125000 I2.749528 J1.497675
G03 X46.337008 Y122.473413 Z-0.125000 I0.050755 J3.006925
G03 X50.719800 Y128.562600 Z-0.125000 I-15.482022 J15.765324
G03 X51.239939 Y135.215055 Z-0.125000 I-17.866841 J4.743525
G03 X50.685200 Y137.476900 Z-0.125000 I-8.476756 J-0.880054
G01 X56.341600 Y134.355000 Z-0.125000
G03 X59.995899 Y135.186337 Z-0.125000 I0.262848 J7.291855
G03 X64.309300 Y138.198000 Z-0.125000 I-9.719970 J18.515981
G03 X67.290215 Y141.261929 Z-0.125000 I-22.602318 J24.971964
G03 X70.261100 Y145.010200 Z-0.125000 I-47.872787 J40.995550
G03 X72.985927 Y148.978374 Z-0.125000 I-63.574683 J46.574455
G03 X75.211600 Y152.596000 Z-0.125000 I-90.992027 J58.474518
G01 X79.382800 Y160.486800 Z-0.125000
G03 X76.430725 Y158.274470 Z-0.125000 I10.399045 J-16.951969
G03 X72.975100 Y154.739000 Z-0.125000 I27.306090 J-30.145928
G03 X70.365495 Y151.442998 Z-0.125000 I36.584736 J-31.646994
G03 X67.919500 Y147.745700 Z-0.125000 I43.018538 J-31.117201
G03 X65.750047 Y143.748017 Z-0.125000 I42.809119 J-25.819041
G03 X64.179600 Y139.973200 Z-0.125000 I32.033756 J-15.541180
G03 X62.982328 Y135.065074 Z-0.125000 I24.484612 J-8.572788
G03 X63.106500 Y131.501700 Z-0.125000 I10.047531 J-1.433727
G03 X64.926690 Y128.444130 Z-0.125000 I5.439078 J1.167347
G03 X69.385100 Y126.591200 Z-0.125000 I5.078194 J5.928602
G03 X72.602372 Y126.675946 Z-0.125000 I1.209647 J15.189493
G03 X77.897600 Y127.782200 Z-0.125000 I-4.832292 J36.356659
G02 X79.601324 Y131.120317 Z-0.125000 I9.838312 J-2.917488
G02 X82.646900 Y134.221900 Z-0.125000 I14.305603 J-11.001198
G02 X85.832812 Y136.382172 Z-0.125000 I15.421015 J-19.313123
G02 X89.654000 Y138.292000 Z-0.125000 I19.442052 J-34.122056
G02 X93.502780 Y139.760905 Z-0.125000 I18.420793 J-42.488923
G02 X97.347400 Y140.882500 Z-0.125000 I17.387509 J-52.451036
G02 X101.809571 Y141.815715 Z-0.125000 I13.496442 J-53.398724
G02 X105.349000 Y142.242200 Z-0.125000 I6.520627 J-39.214933
G02 X110.616174 Y141.502262 Z-0.125000 I0.936228 J-12.452455
G02 X110.985000 Y139.821600 Z-0.125000 I-0.354458 J-0.958588
G03 X107.103147 Y142.086705 Z-0.125000 I-5.523176 J-5.006576
G03 X103.479000 Y141.980800 Z-0.125000 I-1.605736 J-7.114013
G03 X99.859939 Y140.220248 Z-0.125000 I3.245777 J-11.272170
G03 X96.711200 Y137.387300 Z-0.125000 I11.552385 J-16.006476
G03 X93.506581 Y132.318798 Z-0.125000 I13.447594 J-12.049728
G03 X93.832200 Y130.096600 Z-0.125000 I2.006046 J-0.841009
G03 X95.194952 Y129.601150 Z-0.125000 I1.100243 J0.904384
G03 X101.458000 Y131.928800 Z-0.125000 I-3.630055 J19.357322
G02 X104.534317 Y135.705848 Z-0.125000 I32.478307 J-23.311506
G02 X106.202000 Y137.129800 Z-0.125000 I6.758284 J-6.226522
G02 X109.214294 Y137.145868 Z-0.125000 I1.518355 J-2.280695
G02 X111.598000 Y134.559700 Z-0.125000 I-3.884571 J-5.972093
G02 X113.018712 Y131.747481 Z-0.125000 I-50.839963 J-27.448939
G03 X114.888000 Y128.300800 Z-0.125000 I31.445220 J14.823901
G03 X118.072367 Y128.921845 Z-0.125000 I0.480518 J6.010514
G03 X121.924000 Y131.334000 Z-0.125000 I-10.797410 J21.522021
G03 X124.972153 Y133.852076 Z-0.125000 I-32.871565 J42.895267
G02 X127.914000 Y136.369800 Z-0.125000 I67.123801 J-75.453558
G02 X131.986495 Y139.173444 Z-0.125000 I18.382729 J-22.342627
G02 X134.789000 Y139.612500 Z-0.125000 I1.981010 J-3.481077
G02 X136.559631 Y138.434521 Z-0.125000 I-0.587451 J-2.802717
G02 X138.802000 Y133.342900 Z-0.125000 I-12.226595 J-8.424224
G03 X134.985863 Y137.541706 Z-0.125000 I-15.413128 J-10.174836
G03 X132.490000 Y138.744300 Z-0.125000 I-3.817418 J-4.731417
G03 X128.658334 Y137.964286 Z-0.125000 I-1.042426 J-4.680446
G03 X125.799000 Y134.619500 Z-0.125000 I5.325564 J-7.447191
G03 X124.522477 Y130.435935 Z-0.125000 I11.685971 J-5.852252
G03 X124.857000 Y126.357200 Z-0.125000 I9.741879 J-1.254092
G03 X126.840428 Y123.443415 Z-0.125000 I5.606004 J1.684077
G03 X131.333000 Y121.966600 Z-0.125000 I4.270970 J5.420819
G03 X134.378950 Y122.455936 Z-0.125000 I-0.390171 J12.153344
G03 X139.395000 Y124.456100 Z-0.125000 I-8.221147 J27.906912
G03 X142.729918 Y125.790248 Z-0.125000 I-2.029106 J9.907233
G03 X146.998000 Y128.961500 Z-0.125000 I-17.662222 J28.228754
G03 X150.103664 Y131.915144 Z-0.125000 I-34.020200 J38.880754
G03 X153.254000 Y135.322800 Z-0.125000 I-73.109560 J70.748931
G03 X156.373650 Y138.981563 Z-0.125000 I-104.566891 J92.318477
G03 X158.978000 Y142.174000 Z-0.125000 I-353.278747 J290.858937
G01 X164.835000 Y147.922600 Z-0.125000
G02 X163.086782 Y145.044992 Z-0.125000 I-16.329207 J7.950550
G02 X160.004000 Y141.211500 Z-0.125000 I-51.280830 J38.082254
G02 X157.095093 Y138.023843 Z-0.125000 I-68.410863 J59.507479
G02 X154.310000 Y135.189300 Z-0.125000 I-109.643778 J104.945440
G01 X149.456000 Y130.486100 Z-0.125000
G03 X150.761183 Y131.586383 Z-0.125000 I-3011.107680 J3573.176045
G02 X155.806000 Y135.815800 Z-0.125000 I731.191509 J-867.036299
G02 X161.317371 Y138.181725 Z-0.125000 I95.832816 J-215.638208
G02 X162.992000 Y138.807800 Z-0.125000 I9.774525 J-23.592257
G01 X158.326000 Y135.288000 Z-0.125000
G02 X155.129580 Y133.435776 Z-0.125000 I-216.100596 J369.245009
G02 X151.581000 Y131.400600 Z-0.125000 I-6872.606722 J11979.122576
G02 X157.278238 Y133.061717 Z-0.125000 I8.657314 J-19.091896
G02 X159.812000 Y132.780500 Z-0.125000 I0.721255 J-5.056701
G02 X162.388633 Y130.250979 Z-0.125000 I-1.595782 J-4.202574
G02 X163.675000 Y125.606800 Z-0.125000 I-20.164124 J-8.085399
G02 X164.333547 Y121.080552 Z-0.125000 I-156.205273 J-25.038130
G03 X165.376000 Y117.255000 Z-0.125000 I14.497533 J1.895732
G03 X167.567263 Y114.732403 Z-0.125000 I4.983783 J2.116159
G03 X172.357000 Y113.821400 Z-0.125000 I3.627647 J6.026016
G00 Z5.000000

(End cutting path id: path4068)


(Pass at depth -2.0)

(Footer)
M5
G00 X0.0000 Y0.0000
M2
(Using default footer. To add your own footer create file "footer" in the output dir.)
(end)
%